X: 21374
T: Kerry Mills'
R: barndance
M: 4/4
K: Cmajor
|:A2|G>EG>c e2 e2|G>EG>c e2 e2|f>ed>c B2 c2|(3ded (3cBA (3GAG (3FED|
G>EG>c e2 e2|G>EG>c e2 e2|f>ed>c B>GA>B|c2 c2 c2:|
|:f2|e>ce>g a2 g2|e>ce>g a2 g2|f>ed>c B2 c2|(3ded (3cBA (3GAG (3FED|
e>ce>g a2 g2|e>ce>g a2 g2|f>ed>c B>GA>B|c2 c2 c2:|
|:G>c|e2 e2 e2 d>c|B>AB>c d>cd>e|f>ef>e f2 (3efe|dcBc dcGc|
e2 e2 e2 d>c|B>AB>c d>cd>e|f2 f2 f2 (3GAB|c2 c2 c2:|

